to side
pu fd 30 rt 120 pd
fd 180 rt 60 
fd 30 rt 120 
fd 30 rt 60 
fd 30 pu bk 30 rt 120 pd
end

to absurd0
repeat 3 [fd 150 rt 120]
pu fd 30 rt 60 pd
repeat 3 [fd 90 lt 120 pu bk 30 pd]
end

to absurd
cs ht
setpensize [3 3]
rt 30 pd
absurd0
wait 60
pu setxy 0 0 seth -90 pd
repeat 3 [side]
wait 60
end

to perspective
repeat 5 [absurd]
end
